icons/tokens/0xba100000625a3754423978a60c9317c58a424e3D/logo.svg

<svg width="32" height="32" viewBox="0 0 32 32" fill="none" xmlns="http://www.w3.org/2000/svg">
<path fill-rule="evenodd" clip-rule="evenodd" d="M32 16C32 13.9059 31.5834 11.8118 30.7821 9.87712C29.9808 7.9424 28.7946 6.16704 27.3136 4.6864C25.833 3.20544 24.0576 2.0192 22.1229 1.21792C20.1882 0.41664 18.0941 0 16 0C13.9059 0 11.8118 0.41664 9.87712 1.21792C7.9424 2.0192 6.16704 3.20544 4.6864 4.6864C3.20544 6.16704 2.0192 7.9424 1.21792 9.87712C0.41664 11.8118 0 13.9059 0 16C0 18.0941 0.41664 20.1882 1.21792 22.1229C2.0192 24.0576 3.20544 25.833 4.6864 27.3136C6.16704 28.7946 7.9424 29.9808 9.87712 30.7821C11.8118 31.5834 13.9059 32 16 32C18.0941 32 20.1882 31.5834 22.1229 30.7821C24.0576 29.9808 25.833 28.7946 27.3136 27.3136C28.7946 25.833 29.9808 24.0576 30.7821 22.1229C31.5834 20.1882 32 18.0941 32 16Z" fill="white"/>
<path fill-rule="evenodd" clip-rule="evenodd" d="M11.1453 16.9407C7.81907 17.535 5.55627 18.7061 5.55627 20.0537C5.55627 22.0024 10.2881 23.5821 16.125 23.5821C21.962 23.5821 26.6938 22.0024 26.6938 20.0537C26.6938 18.7061 24.431 17.535 21.1047 16.9407C19.6591 17.3036 17.9527 17.5132 16.125 17.5132C14.2973 17.5132 12.5909 17.3036 11.1453 16.9407Z" fill="black"/>
<path fill-rule="evenodd" clip-rule="evenodd" d="M12.4291 11.163C9.61166 11.6209 7.67004 12.586 7.67004 13.7025C7.67004 15.2615 11.4555 16.5253 16.125 16.5253C20.7946 16.5253 24.58 15.2615 24.58 13.7025C24.58 12.586 22.6384 11.6209 19.821 11.163C18.7384 11.4314 17.4748 11.5855 16.125 11.5855C14.7753 11.5855 13.5116 11.4314 12.4291 11.163Z" fill="black"/>
<ellipse cx="16.125" cy="8.55102" rx="6.34125" ry="2.11706" fill="black"/>
<path fill-rule="evenodd" clip-rule="evenodd" d="M30.7821 9.87712C31.5834 11.8118 32 13.9059 32 16C32 18.0941 31.5834 20.1882 30.7821 22.1229C29.9808 24.0576 28.7946 25.833 27.3136 27.3136C25.833 28.7946 24.0576 29.9808 22.1229 30.7821C20.1882 31.5834 18.0941 32 16 32C13.9059 32 11.8118 31.5834 9.87712 30.7821C7.9424 29.9808 6.16704 28.7946 4.6864 27.3136C3.20544 25.833 2.0192 24.0576 1.21792 22.1229C0.41664 20.1882 0 18.0941 0 16C0 13.9059 0.41664 11.8118 1.21792 9.87712C2.0192 7.9424 3.20544 6.16704 4.6864 4.6864C6.16704 3.20544 7.9424 2.0192 9.87712 1.21792C11.8118 0.41664 13.9059 0 16 0C18.0941 0 20.1882 0.41664 22.1229 1.21792C24.0576 2.0192 25.833 3.20544 27.3136 4.6864C28.7946 6.16704 29.9808 7.9424 30.7821 9.87712ZM29.304 10.4893C30.025 12.2307 30.4 14.1152 30.4 16C30.4 17.8848 30.025 19.7693 29.304 21.5107C28.5827 23.2518 27.5149 24.8496 26.1824 26.1824C24.8496 27.5149 23.2518 28.5827 21.5107 29.304C19.7693 30.025 17.8848 30.4 16 30.4C14.1152 30.4 12.2307 30.025 10.4893 29.304C8.74816 28.5827 7.1504 27.5149 5.8176 26.1824C4.48512 24.8496 3.41728 23.2518 2.696 21.5107C1.97504 19.7693 1.6 17.8848 1.6 16C1.6 14.1152 1.97504 12.2307 2.696 10.4893C3.41728 8.74816 4.48512 7.1504 5.8176 5.8176C7.1504 4.48512 8.74816 3.41728 10.4893 2.696C12.2307 1.97504 14.1152 1.6 16 1.6C17.8848 1.6 19.7693 1.97504 21.5107 2.696C23.2518 3.41728 24.8496 4.48512 26.1824 5.8176C27.5149 7.1504 28.5827 8.74816 29.304 10.4893Z" fill="black"/>
</svg>

<svg width="32" height="32" fill="none" xmlns="http://www.w3.org/2000/svg"><path fill-rule="evenodd" clip-rule="evenodd" d="M32 16c0-2.094-.417-4.188-1.218-6.123a16.046 16.046 0 00-3.468-5.19 16.046 16.046 0 00-5.191-3.47A16.055 16.055 0 0016 0c-2.094 0-4.188.417-6.123 1.218a16.047 16.047 0 00-5.19 3.468 16.047 16.047 0 00-3.47 5.191A16.054 16.054 0 000 16c0 2.094.417 4.188 1.218 6.123a16.046 16.046 0 003.468 5.19 16.046 16.046 0 005.191 3.47A16.054 16.054 0 0016 32c2.094 0 4.188-.417 6.123-1.218a16.046 16.046 0 005.19-3.468 16.046 16.046 0 003.47-5.191A16.054 16.054 0 0032 16z" fill="#fff"/><path fill-rule="evenodd" clip-rule="evenodd" d="M11.145 16.94c-3.326.595-5.589 1.766-5.589 3.114 0 1.948 4.732 3.528 10.569 3.528 5.837 0 10.569-1.58 10.569-3.528 0-1.348-2.263-2.519-5.59-3.113-1.445.363-3.151.572-4.979.572-1.828 0-3.534-.21-4.98-.572zM12.43 11.163c-2.818.458-4.76 1.423-4.76 2.54 0 1.559 3.786 2.822 8.455 2.822 4.67 0 8.455-1.263 8.455-2.822 0-1.117-1.942-2.082-4.759-2.54-1.083.268-2.346.422-3.696.422s-2.613-.154-3.696-.422z" fill="#000"/><ellipse cx="16.125" cy="8.551" rx="6.341" ry="2.117" fill="#000"/><path fill-rule="evenodd" clip-rule="evenodd" d="M30.782 9.877A16.054 16.054 0 0132 16c0 2.094-.417 4.188-1.218 6.123a16.046 16.046 0 01-3.468 5.19 16.046 16.046 0 01-5.191 3.47A16.054 16.054 0 0116 32c-2.094 0-4.188-.417-6.123-1.218a16.046 16.046 0 01-5.19-3.468 16.046 16.046 0 01-3.47-5.191A16.055 16.055 0 010 16c0-2.094.417-4.188 1.218-6.123a16.047 16.047 0 013.468-5.19 16.047 16.047 0 015.191-3.47A16.054 16.054 0 0116 0c2.094 0 4.188.417 6.123 1.218a16.046 16.046 0 015.19 3.468 16.046 16.046 0 013.47 5.191zm-1.478.612A14.452 14.452 0 0130.4 16c0 1.885-.375 3.77-1.096 5.51a14.454 14.454 0 01-3.122 4.672 14.454 14.454 0 01-4.671 3.122A14.452 14.452 0 0116 30.4c-1.885 0-3.77-.375-5.51-1.096a14.454 14.454 0 01-4.672-3.122 14.454 14.454 0 01-3.122-4.671A14.453 14.453 0 011.6 16c0-1.885.375-3.77 1.096-5.51a14.454 14.454 0 013.122-4.672 14.454 14.454 0 014.671-3.122A14.453 14.453 0 0116 1.6c1.885 0 3.77.375 5.51 1.096a14.454 14.454 0 014.672 3.122 14.454 14.454 0 013.122 4.671z" fill="#000"/></svg>
